svgs/thin/luchador-mask.svg

<svg xmlns="http://www.w3.org/2000/svg" viewBox="0 0 448 512"><!-- Font Awesome Pro 6.0.0-alpha2 by @fontawesome - https://fontawesome.com License - https://fontawesome.com/license (Commercial License) --><path d="M224 0C100.289 0 0 100.289 0 224V320C0 426.039 85.961 512 192 512H256C362.039 512 448 426.039 448 320V224C448 100.289 347.711 0 224 0ZM432 320C432 417.047 353.047 496 256 496H192C94.953 496 16 417.047 16 320V224C16 109.309 109.309 16 224 16S432 109.309 432 224V320ZM304.188 160C268.359 160 237.578 183.57 223.938 217.164C210.242 183.707 179.547 160.25 143.813 160.25C143.953 160.25 115.719 160 96.754 160C74.984 160 72.711 160 67.703 166.012C65.312 168.887 64 172.508 64 176.25V192.332C64 245.082 103.395 288 151.812 288H188.582C178.262 301.328 169.527 315.078 162.926 329.238C161.922 331.383 161.656 333.703 161.656 336H152C121.07 336 96 361.07 96 392S121.07 448 152 448H296C326.93 448 352 422.93 352 392S326.93 336 296 336H286.344C286.344 333.703 286.078 331.383 285.074 329.238C278.469 315.07 269.73 301.312 259.402 287.977C276.875 287.922 296.328 287.75 296.328 287.75C344.605 287.75 384 244.832 384 192.082V176C384 167.164 376.836 160 368 160H304.188ZM151.812 272C112.168 272 80 236.281 80 192.332V176.25C80.156 176.062 87.297 176 96.754 176C115.66 176 143.813 176.25 143.813 176.25C183.461 176.25 215.625 211.969 215.625 255.918V258.727C213.199 260.258 214.641 258.172 202.039 272H151.812ZM296 352C318.055 352 336 369.945 336 392S318.055 432 296 432H152C129.945 432 112 414.055 112 392S129.945 352 152 352H296ZM270.57 336H177.43C185.688 318.273 199.664 295.887 224 272C248.336 295.887 262.312 318.273 270.57 336ZM368 192.082C368 236.031 335.832 271.75 296.188 271.75C296.188 271.75 268.031 272 249.125 272C247.988 272 247.016 271.996 245.953 271.992C233.211 258.023 234.805 260.258 232.375 258.727V255.668C232.375 211.719 264.539 176 304.188 176H368V192.082Z"/></svg>

<svg xmlns="http://www.w3.org/2000/svg" viewBox="0 0 448 512"><!--! Font Awesome Pro 6.0.0-alpha3 by @fontawesome - https://fontawesome.com License - https://fontawesome.com/license (Commercial License) --><path d="M224 0C100.3 0 0 100.3 0 224v96c0 106 85.96 192 192 192h64c106 0 192-85.96 192-192V224C448 100.3 347.7 0 224 0zM432 320c0 97.05-78.95 176-176 176H192c-97.05 0-176-78.95-176-176V224c0-114.7 93.31-208 208-208s208 93.31 208 208V320zM304 160c-35.83 0-66.45 23.57-80.09 57.16C210.2 183.7 179.7 160 143.1 160C144.1 160 115.7 160 96.75 160C74.98 160 72.71 160 67.7 166C65.31 168.9 64 172.5 64 176.3V192.3C64 245.1 103.4 288 151.8 288h36.77c-10.32 13.33-19.05 27.08-25.66 41.24C161.9 331.4 161.7 333.7 161.7 336H152C121.1 336 96 361.1 96 392S121.1 448 152 448h144c30.93 0 56-25.07 56-56s-25.07-56-56-56h-9.656c0-2.297-.2656-4.617-1.27-6.762c-6.605-14.17-15.34-27.93-25.67-41.26c17.47-.0547 36.93-.2266 36.93-.2266C344.6 287.8 384 244.8 384 192.1V176C384 167.2 376.8 160 368 160H304zM151.8 272C112.2 272 80 236.3 80 192.3V176.3C80.16 176.1 87.3 176 96.75 176c18.91 0 47.06 .25 47.06 .25c39.65 0 71.81 35.72 71.81 79.67v2.809C213.2 260.3 214.6 258.2 202 272H151.8zM296 352c22.05 0 40 17.95 40 40s-17.95 40-40 40h-144c-22.05 0-40-17.95-40-40S129.9 352 152 352H296zM270.6 336H177.4C185.7 318.3 199.7 295.9 224 272C248.3 295.9 262.3 318.3 270.6 336zM368 192.1c0 43.95-32.17 79.67-71.81 79.67c0 0-49.17 .2461-50.23 .2422c-12.74-13.97-11.15-11.73-13.58-13.27V255.7c0-43.95 32.16-79.67 71.81-79.67H368V192.1z"/></svg>
